material/.icons/material/bed-single-outline.svg

<svg xmlns="http://www.w3.org/2000/svg" viewBox="0 0 24 24"><path d="M17 10V7a2 2 0 00-2-2H9c-1.1 0-2 .9-2 2v3c-1.1 0-2 .9-2 2v5h1.33L7 19h1l.67-2h6.66l.67 2h1l.67-2H19v-5a2 2 0 00-2-2M9 7h6v3H9m8 5H7v-3h10z"/></svg>

<?xml version="1.0" encoding="UTF-8"?><!DOCTYPE svg PUBLIC "-//W3C//DTD SVG 1.1//EN" "http://www.w3.org/Graphics/SVG/1.1/DTD/svg11.dtd"><svg xmlns="http://www.w3.org/2000/svg" xmlns:xlink="http://www.w3.org/1999/xlink" version="1.1" id="mdi-bed-single-outline" width="24" height="24" viewBox="0 0 24 24"><path d="M17 10V7C17 5.9 16.11 5 15 5H9C7.9 5 7 5.9 7 7V10C5.9 10 5 10.9 5 12V17H6.33L7 19H8L8.67 17H15.33L16 19H17L17.67 17H19V12C19 10.9 18.11 10 17 10M9 7H15V10H9M17 15H7V12H17Z" /></svg>
